X:76
T:Poll Ha'penny
T:Garden of Butterflies, The
R:set dance
I:speed 250
E:7
M:C|
K:AMix
AB|=cAAG A2 (3AB^c|(3dcB (3AGF G2 (3Bcd|edcA dcAG|A2AG A2de|\
~f3d ~e3c|dA(3Bcd efge|agfd =cAGB|A2AG A2:|*
ef|g2gf gfed|eggf gfed|eaag ~a3g|eaag ~a3g|\
~f3d ~e3c|dA(3Bcd efge|agfd =cAGB|A2AG A2:|**
<end>
<start>
